X:97
T:King William's Rambles (j)
B:NFID.176
097king_w
S:F&MB
N:In the "Langstrom's Pony"/"Mooncoin" family. The source has a
9/8 measure (ecA-AcA-Af=g) after measure 5 in the F part.
L:1/8 % dotted rhythm in part 7
M:6/8
R:jig
Q:320
K:A=G
ecA cBA|ecA Bcd|ecA c2e|dBG Bcd|
ecA cBA|eAA BAB|GBd gfe|dBG Bcd:|
P:2
ecA a2a|ecA Bcd|ecA gfg|dBG Bcd|
ecA a2a|gba gef|gba gfe|dBG Bcd:|
P:3
eAA fAA|eAA Bcd|eAA fAe|dBG Bcd|
eAA fAA|eAA BAB|GBd gfe|dBG Bcd:|
P:4
eAA a2A|eAA Bcd|eAA gAe|dBG Bcd|
eAA aAA|gAA faf|dfa gfe|dBG Bcd:|
P:5
fed cBA|ecA Bcd|fed cBA|dBG Bcd|
fed cBA|cBA BAB|GBd gfe|dBG Bcd:|
P:6
gaf g2f|ecA Bcd|gaf g2e|dBG Bcd|
gaf g2f|ecA Afg|agf gfe|dBG Bcd:|
P:7
cee cee|cee Bcd|cee c/e/-e2|dBG Bcd|
cee cee|cee BAB|GBd gfe|1 dBG Bcd:|\
[2 dBG BdB|A6|]

%%%

